!!!OTL: ADJE MEIN LIEBCHEN
!!!ARE: Europa, Mitteleuropa, Deutschland, Frankfurt a.d. Oder, Seelow
!!!SCT: E1411
!!!YEM: Copyright 1995, estate of Helmut Schaffrath.
**kern
*ICvox
*Ivox
*M4/4
*k[b-]
*F:
{4cc
=1
4cc
4cc
4b-
4g
=2
4f
4a
4a}
{4a
=3
4g
4b-
4b-
4b-
=4
4dd
4cc
4cc}
{4cc
=5
4cc
4cc
4b-
4g
=6
4f
4a
4a}
{4a
=7
4g
4cc
4b-
4e
=8
2f
4r}
{4cc
=9
2cc
2b-
=10
4f
4a
4a
4a}
=11
{4g
4b-
4b-
4b-
=12
4dd
4cc
4cc}
{4dd
=13
2cc
2b-
=14
4f
4a
4a
4a}
=15
{4g
4cc
4b-
4e
=16
2f
4r}
==
!!!AGN: Staende -, Soldaten - Lied, Krieg, Abschied
!!!ONB: ESAC (Essen Associative Code) Database: ERK3
!!!AMT: simple quadruple
!!!AIN: vox
!!!EED: Helmut Schaffrath
!!!EEV: 1.0
*-
